X:36
T:Holey Ha'penny
M:6/8
L:1/8
S:Our Northern Branch Repertoire
R:jig
O:'Our Northern Branch' Dance Band
A:Northumberland
B:Bewick's Pipe tunes
N:This version as played by 'Our Northern Branch' - Bewick's early
N:version is simpler 
Z:John Adams - Village Music Project 
K:G d2c |:~B2G GFG | dBG GFG | ~B2G GFG | de=f edc |  ~B2G GFG | dBG 
GA_B | A2=f ede | (c3c) dc :|:B2g ~gfg | B2d d^cd | B2g ~gfg | de=f 
edc |B2g ~gfg | B2d dcB | A2=f ede | (c3c) dc :|
